svg/ts.svg

<?xml version="1.0" encoding="UTF-8"?>
<svg xmlns="http://www.w3.org/2000/svg" xmlns:xlink="http://www.w3.org/1999/xlink" width="32" height="32" viewBox="0 0 32 32">
<path fill-rule="nonzero" fill="rgb(0%, 56.470588%, 87.843137%)" fill-opacity="1" stroke-width="0.56" stroke-linecap="butt" stroke-linejoin="miter" stroke="rgb(0%, 56.470588%, 87.843137%)" stroke-opacity="1" stroke-miterlimit="10" d="M 6.945312 9.664062 L 0.894531 9.664062 L 0.894531 6.785156 L 16.351562 6.785156 L 16.351562 9.664062 L 10.273438 9.664062 L 10.273438 25.214844 L 6.945312 25.214844 Z M 20.480469 20.480469 C 20.480469 20.480469 22.496094 22.433594 25.085938 22.433594 C 26.496094 22.433594 27.777344 21.695312 27.777344 20.191406 C 27.777344 16.894531 19.070312 17.472656 19.070312 11.808594 C 19.070312 8.734375 21.726562 6.464844 25.246094 6.464844 C 28.894531 6.464844 30.753906 8.449219 30.753906 8.449219 L 29.3125 11.167969 C 29.3125 11.167969 27.550781 9.566406 25.246094 9.566406 C 23.679688 9.566406 22.464844 10.464844 22.464844 11.777344 C 22.464844 15.039062 31.136719 14.242188 31.136719 20.128906 C 31.136719 23.070312 28.894531 25.535156 25.054688 25.535156 C 20.960938 25.535156 18.6875 23.007812 18.6875 23.007812 Z M 20.480469 20.480469 "/>
</svg>

<svg role="img" viewBox="0 0 32 32" xmlns="http://www.w3.org/2000/svg"><path d="M6.945 9.664H.895V6.785h15.457v2.88h-6.079v15.55H6.945ZM20.48 20.48s2.016 1.954 4.606 1.954c1.41 0 2.691-.739 2.691-2.243 0-3.296-8.707-2.718-8.707-8.382 0-3.075 2.657-5.344 6.176-5.344 3.649 0 5.508 1.984 5.508 1.984l-1.442 2.719s-1.761-1.602-4.066-1.602c-1.566 0-2.781.899-2.781 2.211 0 3.262 8.672 2.465 8.672 8.352 0 2.941-2.242 5.406-6.082 5.406-4.094 0-6.367-2.527-6.367-2.527Zm0 0" fill="rgb(0%, 56.470591%, 87.843138%)" stroke="rgb(0%, 56.470591%, 87.843138%)" stroke-miterlimit="10" stroke-width=".56"/></svg>
